X: 28941
T: Nan's Snowballs
R: polka
M: 2/4
K: Amajor
|:AB/c/ df|~a2 f2|~a2 f>e|fe f2|
AB/c/ df|~a2 f2|~a2 f>d|dB A2:|
|:a2 ed/e/|fd f>d|df fe/f/|ag a2|
a2 ed/e/|fd f>d|dB AG/A/|cB A2:|

